F[BALLADE
CUT[Der heimkehrende Braeutigam
    Es wollt' sich ein Juengling erwerben,]
CNR[erwerb'n in der Jugend ein Weib.]
REG[Mitteleuropa, Deutschland (BRD) , Baden]
SRC[5, S. 144
    ????]
KEY[Q0102A 16  G 6/8]
MEL[-5_  -3_-5_1_-3_-5_1_  3__2_1__
    3_  2_.1-7_1_-6_2_  -5__.0__
    -5_  4_.32_2_1_-7_  1__3_-5__
    1_  -6_-6_-6_1_-7_-6_  -5__.
    4__5_  3_.2132_1_-7_  1__.0__ //] >>
FCT[Ballade, Ehe - Geloebnis, Betrug]
